public/subscribers.svg

<svg width="72" height="97" viewBox="0 0 72 97" fill="none" xmlns="http://www.w3.org/2000/svg">
<g clip-path="url(#clip0_698_6435)">
<path d="M13.9373 89.1074C13.4017 89.1115 12.8751 88.9694 12.4143 88.6964C11.8641 88.3166 11.4234 87.7989 11.1361 87.1952C10.8488 86.5915 10.7251 85.9229 10.7773 85.2564V36.0354C10.83 34.5409 11.2487 33.0822 11.9967 31.7873C12.7447 30.4923 13.799 29.4008 15.0673 28.6084L56.4203 5.99342C56.9459 5.65067 57.5535 5.45465 58.1803 5.42564C58.8071 5.39663 59.4303 5.53569 59.9853 5.82843C60.5355 6.20845 60.9763 6.7263 61.2636 7.33017C61.5509 7.93403 61.6746 8.60275 61.6223 9.26942V58.4934C61.5697 59.9879 61.151 61.4467 60.403 62.7416C59.655 64.0366 58.6006 65.1281 57.3323 65.9204L15.9793 88.5314C15.3576 88.8914 14.6555 89.0895 13.9373 89.1074ZM58.4553 7.32243C58.0583 7.34094 57.672 7.45777 57.3313 7.66243L15.9823 30.2694C15.0155 30.9001 14.2122 31.7514 13.6385 32.7531C13.0648 33.7548 12.7371 34.8784 12.6823 36.0314V85.2524C12.6401 85.5887 12.6826 85.9303 12.8059 86.246C12.9291 86.5618 13.1294 86.8417 13.3883 87.0604C13.663 87.173 13.9619 87.2137 14.2567 87.1787C14.5515 87.1438 14.8326 87.0342 15.0733 86.8604L56.4253 64.2484C57.3921 63.6176 58.1953 62.7664 58.769 61.7647C59.3427 60.763 59.6704 59.6395 59.7253 58.4864V9.26942C59.7677 8.93333 59.7254 8.59197 59.6023 8.27638C59.4792 7.96079 59.2791 7.68099 59.0203 7.46243C58.8491 7.3657 58.6548 7.31731 58.4583 7.32243H58.4553Z" fill="#1B69FF"/>
<g opacity="0.35">
<path d="M3.24189 83.6833C2.70597 83.6874 2.17908 83.5453 1.71789 83.2723C1.16813 82.8921 0.727741 82.3743 0.440665 81.7707C0.153589 81.1671 0.029886 80.4987 0.0819005 79.8323V30.6103C0.134594 29.1153 0.553716 27.6562 1.30245 26.3612C2.05119 25.0662 3.1066 23.9749 4.37589 23.1833L45.7259 0.571314C46.2515 0.228518 46.8592 0.032554 47.4861 0.00371751C48.1129 -0.025119 48.736 0.11422 49.2909 0.407312C49.841 0.787253 50.2817 1.30495 50.569 1.90862C50.8562 2.5123 50.98 3.18081 50.9279 3.84731V53.0693C50.875 54.5638 50.4562 56.0224 49.7083 57.3173C48.9603 58.6122 47.906 59.7038 46.6379 60.4963L5.2839 83.1073C4.66218 83.4672 3.96004 83.6653 3.24189 83.6833ZM47.7609 1.89833C47.3638 1.91646 46.9775 2.03331 46.6369 2.23832L5.2839 24.8493C4.31699 25.4797 3.51361 26.3307 2.93989 27.3323C2.36617 28.3338 2.03852 29.4574 1.98389 30.6103V79.8313C1.94157 80.1676 1.98389 80.509 2.107 80.8248C2.23012 81.1405 2.43013 81.4205 2.6889 81.6393C2.96369 81.7524 3.2628 81.7933 3.55787 81.7583C3.85294 81.7233 4.13418 81.6135 4.3749 81.4393L45.7259 58.8303C46.6925 58.1996 47.4957 57.3486 48.0694 56.347C48.643 55.3455 48.9709 54.2222 49.0259 53.0693V3.84731C49.0685 3.51112 49.0262 3.16961 48.9029 2.85397C48.7795 2.53832 48.5791 2.2586 48.3199 2.04032C48.1501 1.94256 47.9568 1.8931 47.7609 1.89732V1.89833Z" fill="#1B69FF"/>
</g>
<path d="M66.5124 72.4412L25.1594 95.0492C23.0594 96.1962 21.3594 95.1022 21.3594 92.6062V43.3882C21.4128 42.063 21.7864 40.7705 22.4481 39.6211C23.1099 38.4718 24.0402 37.4998 25.1594 36.7882L66.5124 14.1762C68.6124 13.0292 70.3124 14.1232 70.3124 16.6182V65.8492C70.2571 67.1729 69.8827 68.4636 69.221 69.6114C68.5594 70.7591 67.6301 71.73 66.5124 72.4412Z" fill="white"/>
<path d="M23.571 96.4595C23.0348 96.4636 22.5076 96.3215 22.046 96.0485C21.4963 95.6683 21.0559 95.1506 20.7688 94.5469C20.4817 93.9433 20.358 93.2749 20.41 92.6086V43.3876C20.4627 41.8929 20.8814 40.4341 21.6296 39.1391C22.3778 37.8441 23.4325 36.7527 24.701 35.9605L66.052 13.3496C66.5775 13.0064 67.1852 12.8101 67.812 12.7811C68.4389 12.7521 69.0621 12.8914 69.617 13.1845C70.1669 13.5647 70.6074 14.0824 70.8947 14.686C71.1819 15.2897 71.3058 15.9581 71.254 16.6245V65.8465C71.2013 67.3411 70.7825 68.8 70.0343 70.0949C69.2861 71.3899 68.2315 72.4813 66.963 73.2735L25.612 95.8855C24.9904 96.2445 24.2886 96.4419 23.571 96.4595ZM68.091 14.6755C67.6936 14.6939 67.3071 14.8107 66.966 15.0155L25.612 37.6265C24.6452 38.257 23.8419 39.1081 23.2682 40.1096C22.6945 41.1112 22.3668 42.2346 22.312 43.3876V92.6086C22.2697 92.9448 22.312 93.2863 22.4351 93.602C22.5582 93.9177 22.7583 94.1977 23.017 94.4165C23.2918 94.5303 23.5912 94.5717 23.8866 94.5367C24.182 94.5017 24.4634 94.3914 24.704 94.2165L66.056 71.6036C67.0227 70.9731 67.8259 70.1222 68.3996 69.1209C68.9733 68.1195 69.3011 66.9963 69.356 65.8435V16.6245C69.3983 16.2885 69.3559 15.9473 69.2326 15.6318C69.1093 15.3164 68.909 15.0368 68.65 14.8185C68.4802 14.7208 68.2869 14.6713 68.091 14.6755Z" fill="black"/>
<path d="M70.564 57.3593C70.4547 57.3052 70.333 57.2812 70.2113 57.2899C70.0897 57.2985 69.9725 57.3393 69.872 57.4083L49.562 69.3903C49.4253 68.9292 49.12 68.5365 48.707 68.2903C48.2594 68.0535 47.7388 67.9952 47.25 68.1273V62.9393C55.073 57.9023 61.141 46.7973 60.8 38.1093C60.639 34.0213 59.086 31.0023 56.425 29.6093C53.551 28.1033 49.616 28.6893 45.633 31.2183C37.755 36.2183 31.625 47.3943 31.968 56.1183C32.124 60.0803 33.6 63.0573 36.125 64.5013C38.65 65.9453 41.965 65.7373 45.517 63.9353V69.0633C44.2995 70.1312 43.4639 71.5672 43.137 73.1533L21.843 85.2183C21.6273 85.3569 21.4478 85.5448 21.3191 85.7665C21.1904 85.9882 21.1164 86.2373 21.103 86.4933C21.0953 86.6109 21.1191 86.7284 21.1718 86.8339C21.2245 86.9393 21.3043 87.0288 21.403 87.0933C21.4894 87.1416 21.5869 87.1668 21.686 87.1663C21.8275 87.1618 21.9654 87.1205 22.086 87.0463L43.198 75.0853C43.2756 75.3636 43.4173 75.62 43.6118 75.8337C43.8063 76.0475 44.0481 76.2127 44.318 76.3163C44.8204 76.4315 45.3439 76.417 45.8392 76.2741C46.3345 76.1311 46.7852 75.8645 47.149 75.4993C48.4196 74.425 49.2917 72.9544 49.625 71.3243L70.118 59.2343C70.3335 59.0955 70.5129 58.9076 70.6416 58.6859C70.7703 58.4643 70.8444 58.2152 70.858 57.9593C70.8664 57.8422 70.8436 57.725 70.7919 57.6196C70.7403 57.5142 70.6616 57.4244 70.564 57.3593ZM46.51 39.2693C47.0406 38.9315 47.6506 38.7391 48.279 38.7113C48.6073 38.7064 48.9312 38.7881 49.218 38.9483C49.5878 39.2143 49.8803 39.5738 50.0654 39.9901C50.2504 40.4065 50.3214 40.8645 50.271 41.3173C50.1844 42.6995 49.7765 44.0424 49.0796 45.2392C48.3828 46.436 47.4163 47.4537 46.257 48.2113C45.8744 48.4994 45.4223 48.6808 44.9468 48.7372C44.4713 48.7936 43.9893 48.7229 43.55 48.5323C43.1799 48.2664 42.8874 47.9069 42.7023 47.4905C42.5172 47.0742 42.4464 46.6161 42.497 46.1633C42.5824 44.7809 42.9898 43.4377 43.6865 42.2407C44.3833 41.0438 45.3501 40.0262 46.51 39.2693ZM49.759 46.9283C52.048 43.6893 52.692 39.6623 51.159 37.7223C50.8863 37.3727 50.5355 37.092 50.1346 36.9027C49.7338 36.7134 49.2941 36.6208 48.851 36.6323H48.845C47.086 36.6323 45.045 37.9033 43.384 40.0243C40.79 43.3383 39.991 47.6973 41.601 49.7403C41.9695 50.216 42.4826 50.5592 43.063 50.7183C39.8964 53.9081 37.7979 58.0021 37.057 62.4353C34.906 61.0913 33.682 58.2923 33.684 54.6833C33.684 46.6773 39.428 36.7903 46.498 32.6433C48.2419 31.5339 50.2479 30.9048 52.313 30.8193C53.4324 30.8032 54.5363 31.0829 55.513 31.6303C57.813 32.9453 59.076 35.7393 59.078 39.4983C58.9236 43.6942 57.7413 47.788 55.635 51.4203C55.405 49.9515 54.6169 48.6281 53.435 47.7263C52.3574 46.9984 51.0417 46.7117 49.759 46.9253V46.9283ZM46.727 49.9723C48.727 48.8653 50.58 48.6883 51.954 49.4723C53.265 50.2233 54.023 51.7983 54.093 53.9123C52.0626 56.9935 49.3894 59.5989 46.257 61.5493C43.522 63.1493 40.839 63.7073 38.678 63.1263C38.885 58.1983 42.461 52.3323 46.727 49.9693V49.9723ZM47.983 71.1613C47.9461 71.7553 47.7708 72.3326 47.4711 72.8469C47.1714 73.3612 46.7556 73.7983 46.257 74.1233C46.1059 74.2374 45.928 74.3106 45.7404 74.3358C45.5527 74.3611 45.3618 74.3375 45.186 74.2673C45.0427 74.1595 44.9303 74.0158 44.8601 73.8508C44.7899 73.6858 44.7643 73.5053 44.786 73.3273C44.8232 72.7331 44.9986 72.1559 45.2982 71.6415C45.5979 71.1271 46.0135 70.6897 46.512 70.3643C46.7288 70.2269 46.9776 70.1483 47.234 70.1363C47.3562 70.1335 47.477 70.1631 47.584 70.2223C47.7267 70.3296 47.8386 70.4726 47.9086 70.6369C47.9787 70.8012 48.0043 70.981 47.983 71.1583V71.1613Z" fill="black"/>
</g>
<defs>
<clipPath id="clip0_698_6435">
<rect width="71.194" height="96.459" fill="white" transform="translate(0.0703125)"/>
</clipPath>
</defs>
</svg>

<svg xmlns="http://www.w3.org/2000/svg" width="72" height="97" fill="none" viewBox="0 0 72 97"><g clip-path="url(#a)"><path fill="#1b69ff" d="M13.937 89.107a2.94 2.94 0 0 1-1.523-.41 3.82 3.82 0 0 1-1.637-3.44V36.034a9.14 9.14 0 0 1 4.29-7.427L56.42 5.993a3.52 3.52 0 0 1 3.565-.165 3.82 3.82 0 0 1 1.637 3.441v49.224a9.14 9.14 0 0 1-4.29 7.427L15.98 88.531a4.3 4.3 0 0 1-2.042.576M58.455 7.322a2.4 2.4 0 0 0-1.124.34L15.982 30.27a7.3 7.3 0 0 0-3.3 5.762v49.221a2.04 2.04 0 0 0 .706 1.808 1.75 1.75 0 0 0 1.685-.2l41.352-22.612a7.3 7.3 0 0 0 3.3-5.762V9.27a2.03 2.03 0 0 0-.705-1.807 1.1 1.1 0 0 0-.562-.14z"/><path fill="#1b69ff" d="M3.242 83.683a2.95 2.95 0 0 1-1.524-.41 3.82 3.82 0 0 1-1.636-3.44V30.61a9.13 9.13 0 0 1 4.294-7.427L45.726.571A3.52 3.52 0 0 1 49.29.407a3.82 3.82 0 0 1 1.637 3.44V53.07a9.14 9.14 0 0 1-4.29 7.427L5.284 83.107a4.3 4.3 0 0 1-2.042.576M47.76 1.898a2.4 2.4 0 0 0-1.124.34L5.284 24.85a7.29 7.29 0 0 0-3.3 5.761v49.221a2.04 2.04 0 0 0 .705 1.808 1.74 1.74 0 0 0 1.686-.2l41.35-22.609a7.3 7.3 0 0 0 3.3-5.76V3.846a2.03 2.03 0 0 0-.705-1.807 1.1 1.1 0 0 0-.56-.143z" opacity=".35"/><path fill="#fff" d="M66.512 72.441 25.16 95.05c-2.1 1.147-3.8.053-3.8-2.443V43.388a8.21 8.21 0 0 1 3.8-6.6l41.353-22.612c2.1-1.147 3.8-.053 3.8 2.442V65.85a8.22 8.22 0 0 1-3.8 6.592"/><path fill="#000" d="M23.571 96.46a2.95 2.95 0 0 1-1.525-.411 3.82 3.82 0 0 1-1.636-3.44V43.388a9.14 9.14 0 0 1 4.291-7.427L66.052 13.35a3.52 3.52 0 0 1 3.565-.165 3.82 3.82 0 0 1 1.637 3.44v49.222a9.14 9.14 0 0 1-4.291 7.427L25.612 95.885a4.3 4.3 0 0 1-2.041.575m44.52-81.784a2.4 2.4 0 0 0-1.125.34l-41.354 22.61a7.29 7.29 0 0 0-3.3 5.762v49.22a2.04 2.04 0 0 0 .705 1.808 1.74 1.74 0 0 0 1.687-.2l41.352-22.612a7.3 7.3 0 0 0 3.3-5.76v-49.22a2.03 2.03 0 0 0-.706-1.805 1.1 1.1 0 0 0-.559-.144"/><path fill="#000" d="M70.564 57.36a.69.69 0 0 0-.692.048L49.562 69.39a1.91 1.91 0 0 0-.855-1.1 2 2 0 0 0-1.457-.163V62.94c7.823-5.037 13.891-16.142 13.55-24.83-.161-4.088-1.714-7.107-4.375-8.5-2.874-1.506-6.809-.92-10.792 1.61-7.878 5-14.008 16.175-13.665 24.9.156 3.961 1.632 6.938 4.157 8.382s5.84 1.236 9.392-.566v5.128a7.44 7.44 0 0 0-2.38 4.09L21.843 85.218a1.62 1.62 0 0 0-.74 1.275.67.67 0 0 0 .3.6.6.6 0 0 0 .283.073.8.8 0 0 0 .4-.12l21.112-11.96a1.85 1.85 0 0 0 1.12 1.23 3.04 3.04 0 0 0 2.831-.817 7.4 7.4 0 0 0 2.476-4.175l20.493-12.09a1.62 1.62 0 0 0 .74-1.275.66.66 0 0 0-.294-.6M46.51 39.27a3.6 3.6 0 0 1 1.769-.559c.328-.005.652.077.939.237a2.57 2.57 0 0 1 1.053 2.37 8.9 8.9 0 0 1-4.014 6.893 2.71 2.71 0 0 1-2.707.321 2.57 2.57 0 0 1-1.053-2.369 8.89 8.89 0 0 1 4.013-6.894m3.249 7.658c2.289-3.239 2.933-7.266 1.4-9.206a2.83 2.83 0 0 0-2.308-1.09h-.006c-1.759 0-3.8 1.271-5.461 3.392-2.594 3.314-3.393 7.673-1.783 9.716.368.476.882.82 1.462.978a21.7 21.7 0 0 0-6.006 11.717c-2.151-1.344-3.375-4.143-3.373-7.752 0-8.006 5.744-17.893 12.814-22.04a11.74 11.74 0 0 1 5.815-1.824 6.36 6.36 0 0 1 3.2.811c2.3 1.315 3.563 4.11 3.565 7.868a25.65 25.65 0 0 1-3.443 11.922 5.77 5.77 0 0 0-2.2-3.694 5.08 5.08 0 0 0-3.676-.8zm-3.032 3.044c2-1.107 3.853-1.284 5.227-.5 1.311.751 2.069 2.326 2.139 4.44a25.6 25.6 0 0 1-7.836 7.637c-2.735 1.6-5.418 2.158-7.579 1.577.207-4.928 3.783-10.794 8.049-13.157zm1.256 21.19a3.82 3.82 0 0 1-1.726 2.961 1.1 1.1 0 0 1-1.071.144 1.02 1.02 0 0 1-.4-.94 3.82 3.82 0 0 1 1.726-2.963c.217-.137.466-.216.722-.228a.7.7 0 0 1 .35.086 1.02 1.02 0 0 1 .399.936z"/></g><defs><clipPath id="a"><path fill="#fff" d="M.07 0h71.194v96.459H.07z"/></clipPath></defs></svg>
